modules/hawcons-stroke/icons/lock-open.svg

<?xml version="1.0" encoding="UTF-8" standalone="no"?>
<svg width="32px" height="32px" viewBox="0 0 32 32" version="1.1" xmlns="http://www.w3.org/2000/svg" xmlns:xlink="http://www.w3.org/1999/xlink" xmlns:sketch="http://www.bohemiancoding.com/sketch/ns">
    <!-- Generator: Sketch 3.0.3 (7891) - http://www.bohemiancoding.com/sketch -->
    <title>icon 116 lock open</title>
    <desc>Created with Sketch.</desc>
    <defs></defs>
    <g id="Page-1" stroke="none" stroke-width="1" fill="none" fill-rule="evenodd" sketch:type="MSPage">
        <g id="icon-116-lock-open" sketch:type="MSArtboardGroup" fill="#929292">
            <path d="M24,9.5 L24,8.499235 C24,4.35752188 20.6337072,1 16.5,1 C12.3578644,1 9,4.35670485 9,8.499235 L9,16.0000125 L9,16.0000125 C7.34233349,16.0047152 6,17.339581 6,19.0094776 L6,28.9905224 C6,30.652611 7.34559019,32 9.00878799,32 L23.991212,32 C25.6529197,32 27,30.6633689 27,28.9905224 L27,19.0094776 C27,17.3503174 25.6591471,16.0047488 24,16 L23.4863586,16 L12.0274777,16 C12.0093222,15.8360041 12,15.6693524 12,15.5005291 L12,8.49947095 C12,6.01021019 14.0147186,4 16.5,4 C18.9802243,4 21,6.01448176 21,8.49947095 L21,9.5 L21,12.4998351 C21,13.3283533 21.6657972,14 22.5,14 C23.3284271,14 24,13.3256778 24,12.4998351 L24,9.5 L24,9.5 L24,9.5 Z M23,8.49342686 C23,4.90720623 20.0825462,2 16.5,2 C12.9101491,2 10,4.90817171 10,8.49342686 L10,15.5065731 C10,15.6725774 10.0062513,15.8371266 10.0185304,16 L11,16 L11,8.50907306 C11,5.46140289 13.4624339,3 16.5,3 C19.5313853,3 22,5.46649603 22,8.50907306 L22,12.5022333 C22,12.7771423 22.2319336,13 22.5,13 L22.5,13 C22.7761424,13 23,12.7849426 23,12.5095215 L23,9 L23,8.49342686 L23,8.49342686 Z M16,23.9146472 L16,26.5089948 C16,26.7801695 16.2319336,27 16.5,27 C16.7761424,27 17,26.7721195 17,26.5089948 L17,23.9146472 C17.5825962,23.708729 18,23.1531095 18,22.5 C18,21.6715728 17.3284272,21 16.5,21 C15.6715728,21 15,21.6715728 15,22.5 C15,23.1531095 15.4174038,23.708729 16,23.9146472 L16,23.9146472 L16,23.9146472 Z M15,24.5001831 L15,26.4983244 C15,27.3276769 15.6657972,28 16.5,28 C17.3284271,28 18,27.3288106 18,26.4983244 L18,24.5001831 C18.6072234,24.04408 19,23.317909 19,22.5 C19,21.1192881 17.8807119,20 16.5,20 C15.1192881,20 14,21.1192881 14,22.5 C14,23.317909 14.3927766,24.04408 15,24.5001831 L15,24.5001831 L15,24.5001831 Z M8.99742191,17 C7.89427625,17 7,17.8970601 7,19.0058587 L7,28.9941413 C7,30.1019465 7.89092539,31 8.99742191,31 L24.0025781,31 C25.1057238,31 26,30.1029399 26,28.9941413 L26,19.0058587 C26,17.8980535 25.1090746,17 24.0025781,17 L8.99742191,17 L8.99742191,17 Z" id="-ock-open" sketch:type="MSShapeGroup"></path>
        </g>
    </g>
</svg>

<svg width="32" height="32" viewBox="0 0 32 32" xmlns="http://www.w3.org/2000/svg"><path d="M24 9.5v-1a7.5 7.5 0 1 0-15 0V16c-1.658.005-3 1.34-3 3.01v9.98A3.008 3.008 0 0 0 9.009 32H23.99A3.002 3.002 0 0 0 27 28.99v-9.98c0-1.66-1.34-3.005-3-3.01H12.027a4.538 4.538 0 0 1-.027-.5v-7C12 6.01 14.015 4 16.5 4 18.98 4 21 6.014 21 8.5v4c0 .828.666 1.5 1.5 1.5.828 0 1.5-.674 1.5-1.5v-3zm-1-1.007C23 4.907 20.083 2 16.5 2 12.91 2 10 4.908 10 8.493v7.014c0 .166.006.33.019.493H11V8.51A5.501 5.501 0 0 1 16.5 3C19.531 3 22 5.466 22 8.51v3.992c0 .275.232.498.5.498.276 0 .5-.215.5-.49V8.493zm-7 15.422v2.594a.5.5 0 0 0 1 0v-2.594a1.5 1.5 0 1 0-1 0zm-1 .585v1.998a1.5 1.5 0 0 0 3 0V24.5a2.5 2.5 0 1 0-3 0zM8.997 17A2.001 2.001 0 0 0 7 19.006v9.988A2 2 0 0 0 8.997 31h15.006A2.001 2.001 0 0 0 26 28.994v-9.988A2 2 0 0 0 24.003 17H8.997z" fill="#929292" fill-rule="evenodd"/></svg>
